packages/icons/src/notion-logo.svg

<svg width="15" height="15" viewBox="0 0 15 15" fill="none" xmlns="http://www.w3.org/2000/svg">
  <path
    d="M3.25781 3.11684C3.67771 3.45796 3.83523 3.43193 4.62369 3.37933L12.0571 2.93299C12.2147 2.93299 12.0836 2.77571 12.0311 2.74957L10.7965 1.85711C10.56 1.67347 10.2448 1.46315 9.64083 1.51576L2.44308 2.04074C2.18059 2.06677 2.12815 2.19801 2.2327 2.30322L3.25781 3.11684ZM3.7041 4.84917V12.6704C3.7041 13.0907 3.91415 13.248 4.38693 13.222L12.5562 12.7493C13.0292 12.7233 13.0819 12.4341 13.0819 12.0927V4.32397C13.0819 3.98306 12.9508 3.79921 12.6612 3.82545L4.12422 4.32397C3.80918 4.35044 3.7041 4.50803 3.7041 4.84917ZM11.7688 5.26872C11.8212 5.50518 11.7688 5.74142 11.5319 5.76799L11.1383 5.84641V11.6205C10.7965 11.8042 10.4814 11.9092 10.2188 11.9092C9.79835 11.9092 9.69305 11.7779 9.37812 11.3844L6.80345 7.34249V11.2532L7.61816 11.437C7.61816 11.437 7.61816 11.9092 6.96086 11.9092L5.14879 12.0143C5.09615 11.9092 5.14879 11.647 5.33259 11.5944L5.80546 11.4634V6.29276L5.1489 6.24015C5.09625 6.00369 5.22739 5.66278 5.5954 5.63631L7.53935 5.50528L10.2188 9.5998V5.97765L9.53564 5.89924C9.4832 5.61018 9.69305 5.40028 9.95576 5.37425L11.7688 5.26872ZM1.83874 1.33212L9.32557 0.780787C10.245 0.701932 10.4815 0.754753 11.0594 1.17452L13.4492 2.85424C13.8436 3.14309 13.975 3.22173 13.975 3.53661V12.7493C13.975 13.3266 13.7647 13.6681 13.0293 13.7203L4.33492 14.2454C3.78291 14.2717 3.52019 14.193 3.23111 13.8253L1.47116 11.5419C1.1558 11.1216 1.02466 10.8071 1.02466 10.4392V2.25041C1.02466 1.77825 1.23504 1.38441 1.83874 1.33212Z"
    fill="currentColor"
  />
</svg>

<svg xmlns="http://www.w3.org/2000/svg" width="15" height="15" fill="none"><path fill="currentColor" d="M3.258 3.117c.42.341.577.315 1.366.262l7.433-.446c.158 0 .027-.157-.026-.183l-1.235-.893c-.236-.184-.551-.394-1.155-.341l-7.198.525c-.262.026-.315.157-.21.262zm.446 1.732v7.821c0 .42.21.578.683.552l8.17-.473c.472-.026.525-.315.525-.656V4.324c0-.34-.131-.525-.42-.499l-8.538.499c-.315.026-.42.184-.42.525m8.065.42c.052.236 0 .472-.237.499l-.394.078v5.775c-.341.183-.657.288-.92.288-.42 0-.525-.131-.84-.525L6.803 7.342v3.911l.815.184s0 .472-.657.472l-1.812.105c-.053-.105 0-.367.184-.42l.472-.13V6.292L5.15 6.24c-.053-.236.078-.577.446-.604l1.944-.13L10.22 9.6V5.978l-.683-.079c-.053-.289.157-.499.42-.525zm-9.93-3.937L9.326.781c.919-.08 1.156-.026 1.733.394l2.39 1.68c.395.288.526.367.526.682v9.212c0 .578-.21.92-.946.971l-8.694.525c-.552.027-.815-.052-1.104-.42l-1.76-2.283c-.315-.42-.446-.735-.446-1.103V2.25c0-.472.21-.866.814-.918"/></svg>
